X:18425
T:Waltz,2. TLY.046
M:3/4
L:1/8
Q:140
S:Wm.Tildesley,Swinton,Lancs.1860s.
R:Waltz
O:England.
A:Lancashire.
H:1860.
Z:vmp.Taz Tarry.
K:G
D4 G2|B4 d2|^cdedcd| A6|D-E.F.G.A.B| cBcAdc|BdGBAF|G2z2:|!
|:d2|g2g2g2|g2g2g2|g2gfgf|g4 z2|f2a2e2|f2a2e2|f2 agfe|d2z2:|!
|:z2|b4 a2|g4 ab|c'2 c'2 b2|b2 =g2a2|a4 g2|f4 ga|b2b2a2| g2 z2:|!
|:z2|e6|f6|g2b2b2 | f6|g2b2b2 |f6|g2 gf g2| a2ab a2|!
b2 babd'|{d'} c'4a2| b2 babd'| {d'}c'4 a2|b2 g2g2|g2 bagf| g2g2g2| g2 z2
:|]


